app/result/img/review-bg-min.svg

<svg width="97" height="113" viewBox="0 0 97 113" fill="none" xmlns="http://www.w3.org/2000/svg">
<path fill-rule="evenodd" clip-rule="evenodd" d="M62.0668 65.3564C52.33 67.8862 41.8395 70.7956 33.1406 66.1117C24.0211 61.2013 19.7399 51.6184 18.9774 42.1549C18.2233 32.7953 21.5992 23.5073 29.1856 17.0246C36.8917 10.4396 47.5806 7.29813 58.163 8.67023C68.7834 10.0473 77.8516 15.8973 83.464 24.0622C89.2457 32.4736 92.5018 42.9566 87.8722 51.8913C83.474 60.3793 72.1388 62.7394 62.0668 65.3564Z" fill="#BE1622"/>
<path fill-rule="evenodd" clip-rule="evenodd" d="M73.7678 87.4701C67.8502 94.7865 61.602 102.814 51.4994 103.879C40.9083 104.995 30.889 99.7851 23.7251 92.7452C16.6399 85.7825 12.8585 76.6185 14.3403 67.363C15.8455 57.9617 22.0891 49.6428 31.3791 44.9386C40.7024 40.2176 51.9047 39.8696 61.9895 43.2349C72.3786 46.7017 82.2145 53.1818 84.7629 62.7528C87.1839 71.8454 79.8892 79.9019 73.7678 87.4701Z" fill="#BE1622"/>
</svg>

<svg width="97" height="113" viewBox="0 0 97 113" fill="none" xmlns="http://www.w3.org/2000/svg"><path fill-rule="evenodd" clip-rule="evenodd" d="M62.067 65.356c-9.737 2.53-20.227 5.44-28.926.756-9.12-4.91-13.401-14.494-14.164-23.957-.754-9.36 2.622-18.648 10.209-25.13C36.892 10.44 47.58 7.298 58.163 8.67c10.62 1.377 19.689 7.227 25.301 15.392 5.782 8.412 9.038 18.895 4.408 27.83-4.398 8.487-15.733 10.847-25.805 13.464z" fill="#BE1622"/><path fill-rule="evenodd" clip-rule="evenodd" d="M73.768 87.47c-5.918 7.317-12.166 15.344-22.269 16.409-10.59 1.116-20.61-4.094-27.774-11.134-7.085-6.963-10.867-16.127-9.385-25.382 1.505-9.401 7.75-17.72 17.04-22.424 9.322-4.721 20.525-5.07 30.61-1.704 10.389 3.467 20.224 9.947 22.773 19.518 2.42 9.092-4.874 17.149-10.995 24.717z" fill="#BE1622"/></svg>
